X:97
T:O'Broin's Flightcase
R:jig
D:Moving Hearts: The Storm
Z:id:hn-jig-97
M:6/8
K:Amix
~c3 cBA|BGB GBE|~c3 cBA|~D3 DFA|~c3 cBA|BGB GBE|GAB dcB|~D3 DFA:|
|:=c2A Bcd|eAB =cde|gfe ~A3|1 BAG dBG|=c2A Bcd|eAB =cde|gab age|
fed afd:|2 fed GBd|eAB =cde|AB=c def|gab age|fed afd||

